brandFactory_export/3.Masa/Presentacion _3Masa.svg

<?xml version="1.0" encoding="UTF-8"?>
<svg width="24px" height="24px" viewBox="0 0 24 24" version="1.1" xmlns="http://www.w3.org/2000/svg" xmlns:xlink="http://www.w3.org/1999/xlink">
    <title>3.Masa/Presentacion _3Masa</title>
    <g id="Symbols" stroke="none" stroke-width="1" fill="none" fill-rule="evenodd">
        <g id="3.Masa/Presentacion-_3Masa" fill="#5CB615" fill-rule="nonzero">
            <path d="M22.302521,6.14117647 L22.312605,5.70420168 C22.1882353,5.67731092 22.0605042,5.67058824 21.9327731,5.67731092 L3.69747899,5.66722689 C3.58319328,5.66386555 3.46890756,5.68403361 3.36134454,5.7210084 L3.36134454,6.15798319 C3.43529412,6.17478992 3.55966387,6.19159664 3.73109244,6.18487395 L4.35294118,6.18487395 C4.40672269,6.18487395 4.45378151,6.17478992 4.49747899,6.17478992 L21.1159664,6.18487395 C21.1798319,6.17478992 21.2336134,6.19159664 21.287395,6.19159664 L21.9663866,6.19159664 C22.0806723,6.19495798 22.194958,6.17815126 22.302521,6.14117647 L22.302521,6.14117647 Z M12.7966387,22.487395 C13.2201681,22.4773109 13.2201681,22.2621849 13.2201681,22.1142857 C13.2201681,21.9731092 13.2201681,21.7378151 12.8605042,21.7310924 L12.789916,21.7310924 C12.4739496,21.7310924 12.4470588,21.912605 12.4470588,22.1042017 C12.4436975,22.2554622 12.4436975,22.4806723 12.7966387,22.487395 Z M12.2890756,2.94789916 L9.65042017,4.35966387 L15.8823529,4.3697479 L13.4285714,2.92773109 C13.2537815,2.99159664 13.0722689,3.02521008 12.887395,3.02521008 L12.7865546,3.02521008 C12.6252101,3.02521008 12.4537815,2.99831933 12.2890756,2.94789916 L12.2890756,2.94789916 Z M12.7865546,1.13277311 C12.4705882,1.14285714 12.4436975,1.31428571 12.4436975,1.5092437 C12.4436975,1.70084034 12.4705882,1.89243697 12.7966387,1.89243697 C13.2201681,1.88235294 13.2201681,1.66722689 13.2201681,1.51932773 C13.2201681,1.37815126 13.2201681,1.14285714 12.8605042,1.13613445 L12.7865546,1.13277311 L12.7865546,1.13277311 Z M23.3243697,4.78991597 C23.5394958,4.98151261 23.6571429,5.24369748 23.6672269,5.51260504 L23.6571429,6.3394958 C23.6571429,6.81344538 23.3042017,7.19663866 22.7462185,7.37815126 C22.7563025,7.43865546 22.7731092,7.5092437 22.7731092,7.57647059 L22.7630252,17.6369748 C22.7630252,18.410084 22.0504202,19.0487395 21.1663866,19.0487395 L13.512605,19.0386555 L13.512605,20.7226891 C14.010084,20.9243697 14.3966387,21.3781513 14.3966387,22.1109244 C14.3966387,23.1294118 13.6403361,23.6033613 12.8907563,23.6201681 L12.7731092,23.6201681 C12.0336134,23.610084 11.2739496,23.1394958 11.2739496,22.1008403 C11.2739496,21.3579832 11.6605042,20.9142857 12.1613445,20.712605 L12.1613445,19.0386555 L4.55462185,19.0386555 C3.92941176,19.0621849 3.55294118,18.8268908 3.33445378,18.6285714 C3.05546218,18.3764706 2.89747899,18.0201681 2.90084034,17.6436975 L2.90084034,7.57983193 C2.90084034,7.51932773 2.91092437,7.45882353 2.91764706,7.39831933 C2.69243697,7.32773109 2.49411765,7.22352941 2.3394958,7.08235294 C2.13109244,6.89747899 2.01008403,6.62857143 2.00672269,6.34957983 L2.00672269,5.52268908 C2.00672269,4.85042017 2.71932773,4.36302521 3.69411765,4.36302521 L6.8605042,4.36302521 L11.3310924,1.97310924 C11.2907563,1.82184874 11.2672269,1.66722689 11.2672269,1.5092437 C11.2672269,0.480672269 12.0235294,0.0100840336 12.7731092,0 L12.7731092,0.0100840336 L12.8907563,0.0100840336 C13.6302521,0.0168067227 14.389916,0.497478992 14.389916,1.51932773 C14.389916,1.67731092 14.3731092,1.81512605 14.3361345,1.9394958 L18.5109244,4.3697479 L21.912605,4.3697479 C22.5176471,4.34621849 23.0151261,4.50084034 23.3243697,4.78991597 Z M16.9478992,15.3277311 L8.62184874,15.3277311 L10.0201681,13.2067227 L13.0521008,14.3428571 C13.2504202,14.410084 13.4857143,14.3495798 13.6201681,14.194958 L15.8117647,11.5260504 L15.8655462,11.8722689 C15.902521,12.107563 16.1176471,12.2823529 16.3529412,12.2823529 C16.3798319,12.2823529 16.4067227,12.2722689 16.4336134,12.2722689 C16.6991597,12.2319328 16.8840336,11.9865546 16.8504202,11.7210084 L16.6352941,10.3260504 C16.5882353,10.0907563 16.3798319,9.91932773 16.1378151,9.92605042 L14.5378151,9.92605042 C14.2722689,9.91932773 14.0504202,10.1310924 14.0403361,10.3966387 C14.0403361,10.6655462 14.2655462,10.8739496 14.5378151,10.8739496 L15.0689076,10.8739496 L13.0722689,13.3109244 L10.0033613,12.1680672 C9.78487395,12.0806723 9.53613445,12.1579832 9.40840336,12.3529412 L7.97310924,14.5344538 L7.97310924,9.98655462 C7.9697479,9.71764706 7.74789916,9.50252101 7.4789916,9.5092437 L7.47563025,9.5092437 C7.21008403,9.49915966 6.98823529,9.70756303 6.97815126,9.97310924 L6.97815126,15.805042 C6.97815126,16.0672269 7.19327731,16.2857531 7.47563025,16.2857531 L16.9445378,16.2857531 C17.2134454,16.2890756 17.4352941,16.0739496 17.4420168,15.805042 C17.4386555,15.5394958 17.2201681,15.3243697 16.9478992,15.3277311 L16.9478992,15.3277311 Z" id="Presentacion-_3Masa"></path>
        </g>
    </g>
</svg>

<svg width="24" height="24" viewBox="0 0 24 24" xmlns="http://www.w3.org/2000/svg"><path d="M22.303 6.141l.01-.437a1.438 1.438 0 00-.38-.027l-18.236-.01a.952.952 0 00-.336.054v.437c.074.017.199.034.37.027h.622c.054 0 .1-.01.144-.01l16.619.01c.064-.01.118.007.171.007h.68a.95.95 0 00.336-.05zm-9.506 16.346c.423-.01.423-.225.423-.373 0-.14 0-.376-.36-.383h-.07c-.316 0-.343.182-.343.373-.003.151-.003.377.35.383zm-.508-19.54L9.65 4.36l6.232.01-2.453-1.442a1.571 1.571 0 01-.542.097h-.1c-.162 0-.333-.027-.498-.077zm.498-1.814c-.316.01-.343.181-.343.376 0 .192.027.383.353.383.423-.01.423-.225.423-.373 0-.14 0-.376-.36-.383l-.073-.003zM23.324 4.79c.215.192.333.454.343.723l-.01.826c0 .474-.353.858-.91 1.04.01.06.026.13.026.197l-.01 10.061c0 .773-.713 1.412-1.597 1.412l-7.653-.01v1.684c.497.201.884.655.884 1.388 0 1.018-.757 1.492-1.506 1.51h-.118c-.74-.01-1.5-.482-1.5-1.52 0-.743.388-1.187.888-1.388v-1.674H4.555c-.626.023-1.002-.212-1.22-.41a1.309 1.309 0 01-.434-.985V7.58c0-.06.01-.121.017-.182a1.527 1.527 0 01-.579-.316 1 1 0 01-.332-.732v-.827c0-.673.712-1.16 1.687-1.16h3.167l4.47-2.39a1.796 1.796 0 01-.064-.464c0-1.028.757-1.499 1.506-1.509v.01h.118c.74.007 1.499.487 1.499 1.51 0 .157-.017.295-.054.42l4.175 2.43h3.402c.605-.024 1.102.13 1.411.42zm-6.376 10.538H8.622l1.398-2.121 3.032 1.136a.54.54 0 00.568-.148l2.192-2.669.054.346c.037.236.252.41.487.41.027 0 .054-.01.08-.01a.495.495 0 00.417-.551l-.215-1.395a.495.495 0 00-.497-.4h-1.6a.489.489 0 00-.498.47c0 .27.226.478.498.478h.53l-1.996 2.437-3.069-1.143a.492.492 0 00-.595.185l-1.435 2.181V9.987a.483.483 0 00-.494-.478h-.003a.48.48 0 00-.498.464v5.832c0 .262.215.48.498.48h9.469a.493.493 0 00.497-.48.485.485 0 00-.494-.477z" fill="#5CB615" fill-rule="nonzero"/></svg>
